X: 110204
T: LORD MACDONALD
Q: "Reel."
R:  Reel.
%R: reel
B: James Kerr "Merry Melodies" v.1 p.10 s.2 #4
Z: 2017 John Chambers <jc:trillian.mit.edu>
M: C
L: 1/8
K: G
uB |\
vd3ue dBgB | dBgB aAAB |\
d^cde dBgB | (A/B/c) (BA) BGG :|\
B |\
DGBG AGBG | DGBG AGEG |
DGBG AGBG | DEDC B,G,G,G |\
DGBG AGBG | DGBG AGEG |\
BAGF GFED | EFGA BGG |]

%%sep 1 1 500
%%sep 1 1 500

